X:1
T:I Am the Door
T:I Am the Door
T:Silas Jones Vail
T:Dwight Williams, 1873
T:Public Domain Courtesy of the Cyber Hymnal™
C:Silas Jones Vail
Z:Public Domain
Z:Courtesy of the Cyber Hymnal™
%%score ( 1 2 ) ( 3 4 )
L:1/8
Q:1/4=90
M:3/4
K:Eb
V:1 treble 
V:2 treble 
V:3 bass 
V:4 bass 
V:1
 [GB] | [GB]>[GB] [GB]3 [FA] | [EG]>[EG] [EG]3 [EG] | [B,F][EG] [DA]3 [DB] | [DA]>[EG] [DF]3 [DF] | %5
w: 1.~“I|am the door,” come|in, come in, And|leave with- out thy|load of sin; The|
w: 2.~“I|am the door,” come,|gent- ly knock, And|I will loose the|hea- vy lock That|
w: 3.~“I|am the door,” no|long- er roam, Here|are thy trea- sures,|here thy home; I|
w: 4.~“I|am the door,” My|Fa- ther waits To|make thee heir of|rich es- tates; Come,|
w: 5.~“I|am the door,” come|in, come in, And|ev- er- last- ing|trea- sures win; My|
 E>E E3 E | E>E [DF]3 [EG] | [DA][EB] [Ec]3 [EB] | (B/A/)[EG] [DF]3 [FB] | [GB][Ge] [GB]3 [EG] | %10
w: night is dark, the|storm is wild, O|ven- ture in, thou|stran- * ger child, O|ven- ture in, thou|
w: guards my Fa- ther’s|pre- cious fold; Come|in from dark- ness|and * from cold, Come|in from dark- ness|
w: pur- chased them for|thee and thinse, And|paid the price in|blood * di- vine, And|paid the price in|
w: dwell with Him, and|dwell with Me, And|thou My Fa- ther’s|child * shall be, And|thou My Fa- ther’s|
w: Fa- ther’s house was|built for thee, And|thou shalt share His|home * with Me, And|thou shalt share His|
 [DF]>[DG] E3 |] %11
w: stran- ger child.|
w: and from cold.|
w: blood di- vine.|
w: child shall be.|
w: home with Me.|
V:2
 x | x6 | x6 | x6 | x6 | E>E E3 E | E>E x4 | x6 | D x5 | x6 | x2 E3 |] %11
V:3
 [E,E] | [E,E]>[E,E] [E,E]3 [B,,D] | [C,C]>[C,C] [C,C]3 [C,C] | [D,B,][E,B,] [F,B,]3 [F,B,] | %4
 [F,B,]>[E,B,] [B,,B,]3 [B,,A,] | [C,G,]>[C,G,] [C,G,]3 [C,G,] | [C,G,]>[C,G,] [B,,B,]3 [E,B,] | %7
 [F,B,][G,B,] A,3 [G,B,] | [F,B,][E,B,] [B,,B,]3 [B,,D] | [E,E][E,E] [E,E]3 [E,B,] | %10
 [B,,A,]>[B,,B,] [E,G,]3 |] %11
V:4
 x | x6 | x6 | x6 | x6 | x6 | x6 | x2 A,3 x | x6 | x6 | x5 |] %11

